packages/bezier-icons/icons/hand-thumbdown.svg

<svg width="24" height="24" viewBox="0 0 24 24" fill="none" xmlns="http://www.w3.org/2000/svg">
<path fill-rule="evenodd" clip-rule="evenodd" d="M18.2502 18C19.5612 18 20.7902 17.357 21.5382 16.278C22.2852 15.2 22.4552 13.823 21.9952 12.595L19.7452 6.595C19.1632 5.043 17.6582 4 16.0002 4H13.3232C12.3182 4 11.3352 4.19 10.4002 4.563C7.7272 5.632 6.0002 8.184 6.0002 11.063V11.839C6.0002 13.708 6.7282 15.467 8.0502 16.789L13.5192 22.258C14.4642 23.203 16.1112 23.203 17.0552 22.258C18.0292 21.283 18.0292 19.698 17.0552 18.723L16.3322 18H18.2502ZM17.8722 7.297L20.1222 13.298C20.3562 13.921 20.2732 14.592 19.8932 15.14C19.5152 15.687 18.9152 16 18.2502 16H14.1592C13.7142 16 13.3152 16.266 13.1442 16.677C12.9732 17.088 13.0652 17.559 13.3792 17.875L15.6412 20.137C15.8352 20.332 15.8352 20.649 15.6412 20.844C15.5132 20.972 15.3652 20.99 15.2872 20.99C15.2102 20.99 15.0612 20.971 14.9342 20.844L9.4642 15.375C8.5202 14.431 8.0002 13.175 8.0002 11.839V11.063C8.0002 9.006 9.2342 7.184 11.1432 6.42C11.8402 6.142 12.5732 6 13.3232 6H16.0002C16.8292 6 17.5812 6.522 17.8722 7.297Z" fill="#313234"/>
<path d="M2.0543 14.727C1.9998 14.6201 1.9998 14.48 1.9998 14.2V5.80001C1.9998 5.51999 1.9998 5.37997 2.0543 5.27302C2.10224 5.17894 2.17873 5.10245 2.27281 5.05451C2.37976 5.00001 2.51978 5.00001 2.7998 5.00001H4.1998C4.47983 5.00001 4.61984 5.00001 4.7268 5.05451C4.82088 5.10245 4.89737 5.17894 4.9453 5.27302C4.9998 5.37997 4.9998 5.51999 4.9998 5.80001V14.2C4.9998 14.48 4.9998 14.6201 4.9453 14.727C4.89737 14.8211 4.82088 14.8976 4.7268 14.9455C4.61984 15 4.47983 15 4.1998 15H2.7998C2.51978 15 2.37976 15 2.27281 14.9455C2.17873 14.8976 2.10224 14.8211 2.0543 14.727Z" fill="#313234"/>
</svg>

<svg xmlns="http://www.w3.org/2000/svg" width="24" height="24" fill="none" viewBox="0 0 24 24"><path fill="#313234" fill-rule="evenodd" d="M18.25 18a4 4 0 0 0 3.745-5.405l-2.25-6A4.02 4.02 0 0 0 16 4h-2.677c-1.005 0-1.988.19-2.923.563a6.97 6.97 0 0 0-4.4 6.5v.776c0 1.869.728 3.628 2.05 4.95l5.47 5.469c.944.945 2.591.945 3.535 0a2.504 2.504 0 0 0 0-3.535L16.332 18zm-.378-10.703 2.25 6.001a1.97 1.97 0 0 1-.229 1.842c-.378.547-.978.86-1.643.86h-4.09a1.098 1.098 0 0 0-.78 1.875l2.261 2.262a.5.5 0 0 1 0 .707.498.498 0 0 1-.707 0l-5.47-5.469A4.97 4.97 0 0 1 8 11.839v-.776a4.98 4.98 0 0 1 3.143-4.643 5.9 5.9 0 0 1 2.18-.42H16a2.01 2.01 0 0 1 1.872 1.297" clip-rule="evenodd"/><path fill="#313234" d="M2.054 14.727C2 14.62 2 14.48 2 14.2V5.8c0-.28 0-.42.054-.527a.5.5 0 0 1 .219-.218C2.38 5 2.52 5 2.8 5h1.4c.28 0 .42 0 .527.055a.5.5 0 0 1 .218.218C5 5.38 5 5.52 5 5.8v8.4c0 .28 0 .42-.055.527a.5.5 0 0 1-.218.218C4.62 15 4.48 15 4.2 15H2.8c-.28 0-.42 0-.527-.055a.5.5 0 0 1-.219-.218"/></svg>
